img/icons/mime/large/xpm.svg

<svg height="140.9" width="125.3" xmlns="http://www.w3.org/2000/svg" xmlns:xlink="http://www.w3.org/1999/xlink"><linearGradient id="a" gradientTransform="matrix(.939922 0 0 .896911 -12.081733 -3.352424)" gradientUnits="userSpaceOnUse" x1="24" x2="73" y1="16.4" y2="73.4"><stop offset="0" stop-color="#fff"/><stop offset="1" stop-color="#fff" stop-opacity="0"/></linearGradient><linearGradient id="b" gradientTransform="matrix(1.222575 0 0 .738788 -10.653167 -7.742593)" gradientUnits="userSpaceOnUse" x1="12.2" x2="107.8" y1="84" y2="84"><stop offset="0" stop-color="#46a046"/><stop offset=".4" stop-color="#df421e"/><stop offset=".7" stop-color="#ada7c8"/><stop offset="1" stop-color="#eed680"/></linearGradient><g stroke="#000"><rect fill="none" height="133.4" rx="22.9" stroke-linejoin="round" stroke-opacity=".5" stroke-width="7.5" width="117.8" x="3.8" y="3.8"/><rect fill="#df421e" height="133.4" rx="22.9" stroke-width="3.8" width="117.8" x="3.6" y="3.7"/><rect fill="url(#b)" height="67.2" rx="1.3" stroke-width="3.3" width="113.7" x="5.9" y="20.8"/></g><path d="m100.3 132.6h-75.7c-11.6 0-17.3-5.7-17.3-17.4 0 0 27.6-66.5 110.4-76.6v76.6c0 11.7-5.7 17.4-17.4 17.4z" fill="#fff" fill-opacity=".3"/><path d="m24.6 7.3h75.7c11.7 0 17.4 5.7 17.4 17.4 0 0-79.3.9-110.4 91.3v-91.3c0-10.3 7-17.4 17.3-17.4z" fill="url(#a)"/><path d="m82.1 126.7h-6.8v-31.1h10l8.2 24 8.2-24h10.1v31.1h-6.7v-23.3h-.2l-8.1 23.3h-6.5l-8.1-23.3h-.1zm-31.3-11.1v11.1h-6.7v-31.1h18.7c2.9 0 5.1.8 6.8 2.5s2.5 4.2 2.5 7.5c0 3.2-.8 5.7-2.5 7.4s-3.9 2.6-6.8 2.6zm0-14.7v9.3h8.9c1.5 0 2.7-.3 3.6-1.1 1-.8 1.4-1.9 1.4-3.5s-.4-2.8-1.4-3.5c-.9-.8-2.1-1.2-3.6-1.2zm-37.9-5.3h7.9l6.9 10.7 6.8-10.7h8l-11.4 15.5 11.4 15.6h-8l-6.8-10.7-6.9 10.7h-7.9l11.4-15.6z"/><path d="m81.4 126h-6.7v-31.1h10l8.1 24 8.3-24h10v31.1h-6.7v-23.2h-.2l-8.1 23.2h-6.5l-8.1-23.2h-.1zm-31.3-11.1v11.1h-6.7v-31.1h18.7c2.9 0 5.2.8 6.8 2.5 1.7 1.7 2.6 4.2 2.6 7.5 0 3.2-.9 5.7-2.6 7.4-1.6 1.7-3.9 2.6-6.8 2.6zm0-14.7v9.4h9c1.4 0 2.6-.4 3.6-1.2.9-.7 1.4-1.9 1.4-3.5s-.5-2.8-1.4-3.5c-.9-.8-2.1-1.2-3.6-1.2zm-37.9-5.3h7.9l7 10.7 6.8-10.7h7.9l-11.4 15.5 11.4 15.6h-7.9l-6.8-10.7-7 10.7h-7.9l11.4-15.6z" fill="#fff"/></svg>

<svg xmlns:svg="http://www.w3.org/2000/svg" xmlns="http://www.w3.org/2000/svg" xmlns:xlink="http://www.w3.org/1999/xlink" height="140.9" width="125.3" id="svg1" version="1">
<style>
.s0{
  stop-color:#46a046;
  stop-opacity:1;
}
.s1{
  stop-color:#df421e;
  stop-opacity:1;
}
.s2{
  stop-color:#ada7c8;
  stop-opacity:1;
}
.s3{
  stop-color:#eed680;
  stop-opacity:1;
}
.s4{
  stop-color:#00ff00;
  stop-opacity:1;
}
.s5{
  stop-color:#ff0000;
  stop-opacity:1;
}
.s6{
  stop-color:#7f8cff;
  stop-opacity:1;
}
.s7{
  stop-color:#ffff00;
  stop-opacity:1;
}

</style>  <metadata id="metadata15"/>
  <defs id="defs3">
    <linearGradient id="linearGradient3587">
      <stop offset="0" id="stop3589" style="stop-color:#efe0cd;stop-opacity:0.6"/>
      <stop offset="1" id="stop3591" style="stop-color:#cececd;stop-opacity:0.2"/>
    </linearGradient>
    <linearGradient id="linearGradient2832">
      <stop id="stop2834" offset="0" style="stop-color:#ffffff;stop-opacity:1"/>
      <stop id="stop2836" offset="1" style="stop-color:#ffffff;stop-opacity:0"/>
    </linearGradient>
    <linearGradient id="linearGradient839">
      <stop id="stop840" offset="0" class="s0"/>
      <stop id="stop841" offset="0.4" class="s1"/>
      <stop id="stop842" offset="0.7" class="s2"/>
      <stop id="stop843" offset="1" class="s3"/>
    </linearGradient>
    <linearGradient y2="84" x2="107.8" y1="84" x1="12.2" id="linearGradient836" xlink:href="#linearGradient839" gradientTransform="scale(1.353569,0.738788)" gradientUnits="userSpaceOnUse"/>
    <linearGradient gradientUnits="userSpaceOnUse" y2="73.4" x2="73" y1="16.4" x1="24" gradientTransform="matrix(0.939922,0,0,0.896911,-12.081733,-3.3524237)" id="linearGradient2830" xlink:href="#linearGradient2832"/>
    <linearGradient xlink:href="#linearGradient1700" id="linearGradient1407" gradientUnits="userSpaceOnUse" gradientTransform="matrix(0.777129,0,0,0.894628,-162.4688,12.76856)" x1="111.3" y1="124.3" x2="107.3" y2="93.7"/>
    <linearGradient xlink:href="#linearGradient1700" id="linearGradient1390" gradientUnits="userSpaceOnUse" gradientTransform="matrix(0.777129,0,0,0.894628,-2.922179,10.43077)" x1="111.3" y1="124.3" x2="107.3" y2="93.7"/>
    <linearGradient id="linearGradient1350">
      <stop id="stop1352" offset="0" class="s0"/>
      <stop id="stop1354" offset="0.4" class="s1"/>
      <stop id="stop1356" offset="0.7" class="s2"/>
      <stop id="stop1358" offset="1" class="s3"/>
    </linearGradient>
    <linearGradient y2="0.5" x2="1" y1="0.5" x1="0" id="linearGradient1360" xlink:href="#linearGradient839"/>
    <linearGradient gradientUnits="userSpaceOnUse" y2="88" x2="128.7" y1="121.7" x1="123.5" gradientTransform="matrix(0.870364,0,0,1.001961,4.612015,4.886798)" id="linearGradient1362" xlink:href="#linearGradient1700"/>
    <linearGradient y2="0.5" x2="1" y1="0.5" x1="0" id="linearGradient1363" xlink:href="#linearGradient839"/>
    <linearGradient id="linearGradient1353">
      <stop id="stop1355" offset="0" class="s0"/>
      <stop id="stop1357" offset="0.4" class="s1"/>
      <stop id="stop1359" offset="0.7" class="s2"/>
      <stop id="stop1361" offset="1" class="s3"/>
    </linearGradient>
    <linearGradient id="linearGradient1700">
      <stop id="stop1701" offset="0" style="stop-color:#000000;stop-opacity:0.7"/>
      <stop id="stop1702" offset="1" style="stop-color:#000000;stop-opacity:0"/>
    </linearGradient>
    <linearGradient xlink:href="#linearGradient839" id="linearGradient1427" x1="0" y1="0.5" x2="1" y2="0.5"/>
    <linearGradient id="linearGradient1417">
      <stop offset="0" id="stop1419" class="s0"/>
      <stop offset="0.4" id="stop1421" class="s1"/>
      <stop offset="0.7" id="stop1423" class="s2"/>
      <stop offset="1" id="stop1425" class="s3"/>
    </linearGradient>
    <linearGradient y2="0.5" x2="1" y1="0.5" x1="0" id="linearGradient1381" xlink:href="#linearGradient839"/>
    <linearGradient id="linearGradient1371">
      <stop id="stop1373" offset="0" class="s0"/>
      <stop id="stop1375" offset="0.4" class="s1"/>
      <stop id="stop1377" offset="0.7" class="s2"/>
      <stop id="stop1379" offset="1" class="s3"/>
    </linearGradient>
    <linearGradient xlink:href="#linearGradient839" id="linearGradient1374" x1="0" y1="0.5" x2="1" y2="0.5"/>
    <linearGradient id="linearGradient1364">
      <stop offset="0" id="stop1366" class="s0"/>
      <stop offset="0.4" id="stop1368" class="s1"/>
      <stop offset="0.7" id="stop1370" class="s2"/>
      <stop offset="1" id="stop1372" class="s3"/>
    </linearGradient>
    <linearGradient xlink:href="#linearGradient839" id="linearGradient1389" x1="0" y1="0.5" x2="1" y2="0.5"/>
    <linearGradient id="linearGradient833">
      <stop offset="0" id="stop834" class="s4"/>
      <stop offset="0.3" id="stop837" class="s5"/>
      <stop offset="0.8" id="stop838" class="s6"/>
      <stop offset="1" id="stop835" class="s7"/>
    </linearGradient>
    <linearGradient id="linearGradient1373">
      <stop offset="0" id="stop1376" class="s0"/>
      <stop offset="0.4" id="stop1378" class="s1"/>
      <stop offset="0.7" id="stop1380" class="s2"/>
      <stop offset="1" id="stop1382" class="s3"/>
    </linearGradient>
    <linearGradient xlink:href="#linearGradient839" id="linearGradient1401" gradientUnits="userSpaceOnUse" gradientTransform="matrix(1.222575,0,0,0.738788,-10.653167,-7.7425927)" x1="12.2" y1="84" x2="107.8" y2="84"/>
    <linearGradient xlink:href="#linearGradient839" id="linearGradient2974" x1="0" y1="0.5" x2="1" y2="0.5"/>
    <linearGradient id="linearGradient2964">
      <stop offset="0" id="stop2966" class="s4"/>
      <stop offset="0.3" id="stop2968" class="s5"/>
      <stop offset="0.8" id="stop2970" class="s6"/>
      <stop offset="1" id="stop2972" class="s7"/>
    </linearGradient>
    <linearGradient id="linearGradient2954">
      <stop offset="0" id="stop2956" class="s0"/>
      <stop offset="0.4" id="stop2958" class="s1"/>
      <stop offset="0.7" id="stop2960" class="s2"/>
      <stop offset="1" id="stop2962" class="s3"/>
    </linearGradient>
    <linearGradient xlink:href="#linearGradient839" id="linearGradient2987" gradientUnits="userSpaceOnUse" gradientTransform="matrix(1.353569,0,0,0.738788,-182.1667,-25.6819)" x1="12.2" y1="84" x2="107.8" y2="84"/>
    <linearGradient y2="0.5" x2="1" y1="0.5" x1="0" id="linearGradient1418" xlink:href="#linearGradient839"/>
    <linearGradient id="linearGradient1408">
      <stop id="stop1410" offset="0" class="s4"/>
      <stop id="stop1412" offset="0.3" class="s5"/>
      <stop id="stop1414" offset="0.8" class="s6"/>
      <stop id="stop1416" offset="1" class="s7"/>
    </linearGradient>
    <linearGradient id="linearGradient1397">
      <stop id="stop1399" offset="0" class="s0"/>
      <stop id="stop1401" offset="0.4" class="s1"/>
      <stop id="stop1403" offset="0.7" class="s2"/>
      <stop id="stop1405" offset="1" class="s3"/>
    </linearGradient>
    <linearGradient y2="84" x2="107.8" y1="84" x1="12.2" gradientTransform="matrix(1.353569,0,0,0.738788,-194.7091,-13.83491)" gradientUnits="userSpaceOnUse" id="linearGradient1431" xlink:href="#linearGradient839"/>
    <linearGradient xlink:href="#linearGradient839" id="linearGradient1430" x1="0" y1="0.5" x2="1" y2="0.5"/>
    <linearGradient id="linearGradient1419">
      <stop offset="0" id="stop1422" class="s4"/>
      <stop offset="0.3" id="stop1424" class="s5"/>
      <stop offset="0.8" id="stop1426" class="s6"/>
      <stop offset="1" id="stop1428" class="s7"/>
    </linearGradient>
    <linearGradient id="linearGradient1409">
      <stop offset="0" id="stop1411" class="s0"/>
      <stop offset="0.4" id="stop1413" class="s1"/>
      <stop offset="0.7" id="stop1415" class="s2"/>
      <stop offset="1" id="stop1417" class="s3"/>
    </linearGradient>
    <linearGradient xlink:href="#linearGradient839" id="linearGradient2256" x1="0" y1="0.5" x2="1" y2="0.5"/>
    <linearGradient id="linearGradient2246">
      <stop offset="0" id="stop2248" class="s4"/>
      <stop offset="0.3" id="stop2250" class="s5"/>
      <stop offset="0.8" id="stop2252" class="s6"/>
      <stop offset="1" id="stop2254" class="s7"/>
    </linearGradient>
    <linearGradient id="linearGradient2236">
      <stop offset="0" id="stop2238" class="s0"/>
      <stop offset="0.4" id="stop2240" class="s1"/>
      <stop offset="0.7" id="stop2242" class="s2"/>
      <stop offset="1" id="stop2244" class="s3"/>
    </linearGradient>
    <linearGradient xlink:href="#linearGradient839" id="linearGradient2269" gradientUnits="userSpaceOnUse" gradientTransform="matrix(1.353569,0,0,0.738788,-202.1667,-3.665422)" x1="12.2" y1="84" x2="107.8" y2="84"/>
    <linearGradient y2="0.5" x2="1" y1="0.5" x1="0" id="linearGradient1452" xlink:href="#linearGradient839"/>
    <linearGradient id="linearGradient1442">
      <stop id="stop1444" offset="0" class="s4"/>
      <stop id="stop1446" offset="0.3" class="s5"/>
      <stop id="stop1448" offset="0.8" class="s6"/>
      <stop id="stop1450" offset="1" class="s7"/>
    </linearGradient>
    <linearGradient id="linearGradient1432">
      <stop id="stop1434" offset="0" class="s0"/>
      <stop id="stop1436" offset="0.4" class="s1"/>
      <stop id="stop1438" offset="0.7" class="s2"/>
      <stop id="stop1440" offset="1" class="s3"/>
    </linearGradient>
    <linearGradient y2="0.5" x2="1" y1="0.5" x1="0" id="linearGradient2281" xlink:href="#linearGradient839"/>
    <linearGradient id="linearGradient2271">
      <stop id="stop2273" offset="0" class="s4"/>
      <stop id="stop2275" offset="0.3" class="s5"/>
      <stop id="stop2277" offset="0.8" class="s6"/>
      <stop id="stop2279" offset="1" class="s7"/>
    </linearGradient>
    <linearGradient id="linearGradient2261">
      <stop id="stop2263" offset="0" class="s0"/>
      <stop id="stop2265" offset="0.4" class="s1"/>
      <stop id="stop2267" offset="0.7" class="s2"/>
      <stop id="stop2269" offset="1" class="s3"/>
    </linearGradient>
    <linearGradient y2="84" x2="107.8" y1="84" x1="12.2" gradientTransform="matrix(1.353569,0,0,0.738788,-163.5227,-7.733217)" gradientUnits="userSpaceOnUse" id="linearGradient2294" xlink:href="#linearGradient839"/>
    <linearGradient xlink:href="#linearGradient839" id="linearGradient1475" x1="0" y1="0.5" x2="1" y2="0.5"/>
    <linearGradient id="linearGradient1465">
      <stop offset="0" id="stop1467" class="s4"/>
      <stop offset="0.3" id="stop1469" class="s5"/>
      <stop offset="0.8" id="stop1471" class="s6"/>
      <stop offset="1" id="stop1473" class="s7"/>
    </linearGradient>
    <linearGradient id="linearGradient1455">
      <stop offset="0" id="stop1457" class="s0"/>
      <stop offset="0.4" id="stop1459" class="s1"/>
      <stop offset="0.7" id="stop1461" class="s2"/>
      <stop offset="1" id="stop1463" class="s3"/>
    </linearGradient>
    <linearGradient xlink:href="#linearGradient839" id="linearGradient2300" x1="0" y1="0.5" x2="1" y2="0.5"/>
    <linearGradient id="linearGradient2290">
      <stop offset="0" id="stop2292" class="s4"/>
      <stop offset="0.3" id="stop2294" class="s5"/>
      <stop offset="0.8" id="stop2296" class="s6"/>
      <stop offset="1" id="stop2298" class="s7"/>
    </linearGradient>
    <linearGradient id="linearGradient2280">
      <stop offset="0" id="stop2282" class="s0"/>
      <stop offset="0.4" id="stop2284" class="s1"/>
      <stop offset="0.7" id="stop2286" class="s2"/>
      <stop offset="1" id="stop2288" class="s3"/>
    </linearGradient>
    <linearGradient xlink:href="#linearGradient839" id="linearGradient2313" gradientUnits="userSpaceOnUse" gradientTransform="matrix(1.353569,0,0,0.738788,-186.9125,-34.85186)" x1="12.2" y1="84" x2="107.8" y2="84"/>
    <linearGradient y2="0.5" x2="1" y1="0.5" x1="0" id="linearGradient1498" xlink:href="#linearGradient839"/>
    <linearGradient id="linearGradient1488">
      <stop id="stop1490" offset="0" class="s4"/>
      <stop id="stop1492" offset="0.3" class="s5"/>
      <stop id="stop1494" offset="0.8" class="s6"/>
      <stop id="stop1496" offset="1" class="s7"/>
    </linearGradient>
    <linearGradient id="linearGradient1478">
      <stop id="stop1480" offset="0" class="s0"/>
      <stop id="stop1482" offset="0.4" class="s1"/>
      <stop id="stop1484" offset="0.7" class="s2"/>
      <stop id="stop1486" offset="1" class="s3"/>
    </linearGradient>
    <linearGradient y2="0.5" x2="1" y1="0.5" x1="0" id="linearGradient2325" xlink:href="#linearGradient839"/>
    <linearGradient id="linearGradient2315">
      <stop id="stop2317" offset="0" class="s4"/>
      <stop id="stop2319" offset="0.3" class="s5"/>
      <stop id="stop2321" offset="0.8" class="s6"/>
      <stop id="stop2323" offset="1" class="s7"/>
    </linearGradient>
    <linearGradient id="linearGradient2305">
      <stop id="stop2307" offset="0" class="s0"/>
      <stop id="stop2309" offset="0.4" class="s1"/>
      <stop id="stop2311" offset="0.7" class="s2"/>
      <stop id="stop2313" offset="1" class="s3"/>
    </linearGradient>
    <linearGradient y2="84" x2="107.8" y1="84" x1="12.2" gradientTransform="matrix(1.353569,0,0,0.738788,-166.5735,-17.22474)" gradientUnits="userSpaceOnUse" id="linearGradient2338" xlink:href="#linearGradient839"/>
    <linearGradient y2="0.5" x2="1" y1="0.5" x1="0" id="linearGradient3150" xlink:href="#linearGradient839"/>
    <linearGradient id="linearGradient3140">
      <stop id="stop3142" offset="0" class="s4"/>
      <stop id="stop3144" offset="0.3" class="s5"/>
      <stop id="stop3146" offset="0.8" class="s6"/>
      <stop id="stop3148" offset="1" class="s7"/>
    </linearGradient>
    <linearGradient id="linearGradient3130">
      <stop id="stop3132" offset="0" class="s0"/>
      <stop id="stop3134" offset="0.4" class="s1"/>
      <stop id="stop3136" offset="0.7" class="s2"/>
      <stop id="stop3138" offset="1" class="s3"/>
    </linearGradient>
    <linearGradient y2="84" x2="107.8" y1="84" x1="12.2" gradientTransform="matrix(1.353569,0,0,0.738788,-183.5227,-0.27559)" gradientUnits="userSpaceOnUse" id="linearGradient3163" xlink:href="#linearGradient839"/>
    <linearGradient xlink:href="#linearGradient839" id="linearGradient1533" x1="0" y1="0.5" x2="1" y2="0.5"/>
    <linearGradient id="linearGradient1523">
      <stop offset="0" id="stop1525" class="s4"/>
      <stop offset="0.3" id="stop1527" class="s5"/>
      <stop offset="0.8" id="stop1529" class="s6"/>
      <stop offset="1" id="stop1531" class="s7"/>
    </linearGradient>
    <linearGradient id="linearGradient1513">
      <stop offset="0" id="stop1515" class="s0"/>
      <stop offset="0.4" id="stop1517" class="s1"/>
      <stop offset="0.7" id="stop1519" class="s2"/>
      <stop offset="1" id="stop1521" class="s3"/>
    </linearGradient>
    <linearGradient xlink:href="#linearGradient839" id="linearGradient2359" x1="0" y1="0.5" x2="1" y2="0.5"/>
    <linearGradient id="linearGradient2349">
      <stop offset="0" id="stop2351" class="s4"/>
      <stop offset="0.3" id="stop2353" class="s5"/>
      <stop offset="0.8" id="stop2355" class="s6"/>
      <stop offset="1" id="stop2357" class="s7"/>
    </linearGradient>
    <linearGradient id="linearGradient2339">
      <stop offset="0" id="stop2341" class="s0"/>
      <stop offset="0.4" id="stop2343" class="s1"/>
      <stop offset="0.7" id="stop2345" class="s2"/>
      <stop offset="1" id="stop2347" class="s3"/>
    </linearGradient>
    <linearGradient xlink:href="#linearGradient839" id="linearGradient3184" x1="0" y1="0.5" x2="1" y2="0.5"/>
    <linearGradient id="linearGradient3174">
      <stop offset="0" id="stop3176" class="s4"/>
      <stop offset="0.3" id="stop3178" class="s5"/>
      <stop offset="0.8" id="stop3180" class="s6"/>
      <stop offset="1" id="stop3182" class="s7"/>
    </linearGradient>
    <linearGradient id="linearGradient3164">
      <stop offset="0" id="stop3166" class="s0"/>
      <stop offset="0.4" id="stop3168" class="s1"/>
      <stop offset="0.7" id="stop3170" class="s2"/>
      <stop offset="1" id="stop3172" class="s3"/>
    </linearGradient>
    <linearGradient xlink:href="#linearGradient839" id="linearGradient4009" x1="0" y1="0.5" x2="1" y2="0.5"/>
    <linearGradient id="linearGradient3999">
      <stop offset="0" id="stop4001" class="s4"/>
      <stop offset="0.3" id="stop4003" class="s5"/>
      <stop offset="0.8" id="stop4005" class="s6"/>
      <stop offset="1" id="stop4007" class="s7"/>
    </linearGradient>
    <linearGradient id="linearGradient3989">
      <stop offset="0" id="stop3991" class="s0"/>
      <stop offset="0.4" id="stop3993" class="s1"/>
      <stop offset="0.7" id="stop3995" class="s2"/>
      <stop offset="1" id="stop3997" class="s3"/>
    </linearGradient>
    <linearGradient xlink:href="#linearGradient839" id="linearGradient4836" x1="0" y1="0.5" x2="1" y2="0.5"/>
    <linearGradient id="linearGradient4826">
      <stop offset="0" id="stop4828" class="s4"/>
      <stop offset="0.3" id="stop4830" class="s5"/>
      <stop offset="0.8" id="stop4832" class="s6"/>
      <stop offset="1" id="stop4834" class="s7"/>
    </linearGradient>
    <linearGradient id="linearGradient4816">
      <stop offset="0" id="stop4818" class="s0"/>
      <stop offset="0.4" id="stop4820" class="s1"/>
      <stop offset="0.7" id="stop4822" class="s2"/>
      <stop offset="1" id="stop4824" class="s3"/>
    </linearGradient>
    <linearGradient xlink:href="#linearGradient839" id="linearGradient5661" x1="0" y1="0.5" x2="1" y2="0.5"/>
    <linearGradient id="linearGradient5651">
      <stop offset="0" id="stop5653" class="s4"/>
      <stop offset="0.3" id="stop5655" class="s5"/>
      <stop offset="0.8" id="stop5657" class="s6"/>
      <stop offset="1" id="stop5659" class="s7"/>
    </linearGradient>
    <linearGradient id="linearGradient5641">
      <stop offset="0" id="stop5643" class="s0"/>
      <stop offset="0.4" id="stop5645" class="s1"/>
      <stop offset="0.7" id="stop5647" class="s2"/>
      <stop offset="1" id="stop5649" class="s3"/>
    </linearGradient>
    <linearGradient xlink:href="#linearGradient839" id="linearGradient6486" x1="0" y1="0.5" x2="1" y2="0.5"/>
    <linearGradient id="linearGradient6476">
      <stop offset="0" id="stop6478" class="s4"/>
      <stop offset="0.3" id="stop6480" class="s5"/>
      <stop offset="0.8" id="stop6482" class="s6"/>
      <stop offset="1" id="stop6484" class="s7"/>
    </linearGradient>
    <linearGradient id="linearGradient6466">
      <stop offset="0" id="stop6468" class="s0"/>
      <stop offset="0.4" id="stop6470" class="s1"/>
      <stop offset="0.7" id="stop6472" class="s2"/>
      <stop offset="1" id="stop6474" class="s3"/>
    </linearGradient>
    <linearGradient xlink:href="#linearGradient839" id="linearGradient6501" gradientUnits="userSpaceOnUse" gradientTransform="matrix(1.353569,0,0,0.738788,-175.0481,-9.767115)" x1="12.2" y1="84" x2="107.8" y2="84"/>
  </defs>
  <rect rx="22.9" ry="22.9" y="3.8" x="3.8" height="133.4" width="117.8" id="rect834" style="fill:none;stroke-linejoin:round;stroke-opacity:0.5;stroke-width:7.5;stroke:#000"/>
  <rect rx="22.9" ry="22.9" y="3.7" x="3.6" height="133.4" width="117.8" id="rect828" style="fill:#df421e;stroke-width:3.8;stroke:#000"/>
  <rect id="rect832" width="113.7" height="67.2" ry="1.3" x="5.9" y="20.8" rx="1.3" style="fill:url(#linearGradient1401);stroke-width:3.3;stroke:#000"/>
  <path id="path2838" d="M100.3 132.6L24.6 132.6C13 132.6 7.3 126.9 7.3 115.2 7.3 115.2 34.9 48.7 117.7 38.6L117.7 115.2C117.7 126.9 112 132.6 100.3 132.6z" style="fill-opacity:0.3;fill:#fff"/>
  <path id="rect2063" d="M24.6 7.3L100.3 7.3C112 7.3 117.7 13 117.7 24.7 117.7 24.7 38.4 25.6 7.3 116L7.3 24.7C7.3 14.4 14.3 7.3 24.6 7.3z" fill="url(#linearGradient2830)"/>
  <path d="M82.1 126.7L75.3 126.7 75.3 95.6 85.3 95.6 93.5 119.6 101.7 95.6 111.8 95.6 111.8 126.7 105.1 126.7 105.1 103.4 104.9 103.4 96.8 126.7 90.3 126.7 82.2 103.4 82.1 103.4 82.1 126.7zM50.8 115.6L50.8 126.7 44.1 126.7 44.1 95.6 62.8 95.6C65.7 95.6 67.9 96.4 69.6 98.1 71.3 99.8 72.1 102.3 72.1 105.6 72.1 108.8 71.3 111.3 69.6 113 67.9 114.7 65.7 115.6 62.8 115.6L50.8 115.6zM50.8 100.9L50.8 110.2 59.7 110.2C61.2 110.2 62.4 109.9 63.3 109.1 64.3 108.3 64.7 107.2 64.7 105.6 64.7 104 64.3 102.8 63.3 102.1 62.4 101.3 61.2 100.9 59.7 100.9L50.8 100.9zM12.9 95.6L20.8 95.6 27.7 106.3 34.5 95.6 42.5 95.6 31.1 111.1 42.5 126.7 34.5 126.7 27.7 116 20.8 126.7 12.9 126.7 24.3 111.1 12.9 95.6z" id="path846" style="font-family:Trek;font-size:40;stroke-width:1"/>
  <path d="M81.4 126L74.7 126 74.7 94.9 84.7 94.9 92.8 118.9 101.1 94.9 111.1 94.9 111.1 126 104.4 126 104.4 102.8 104.2 102.8 96.1 126 89.6 126 81.5 102.8 81.4 102.8 81.4 126zM50.1 114.9L50.1 126 43.4 126 43.4 94.9 62.1 94.9C65 94.9 67.3 95.7 68.9 97.4 70.6 99.1 71.5 101.6 71.5 104.9 71.5 108.1 70.6 110.6 68.9 112.3 67.3 114 65 114.9 62.1 114.9L50.1 114.9zM50.1 100.2L50.1 109.6 59.1 109.6C60.5 109.6 61.7 109.2 62.7 108.4 63.6 107.7 64.1 106.5 64.1 104.9 64.1 103.3 63.6 102.1 62.7 101.4 61.8 100.6 60.6 100.2 59.1 100.2L50.1 100.2zM12.2 94.9L20.1 94.9 27.1 105.6 33.9 94.9 41.8 94.9 30.4 110.4 41.8 126 33.9 126 27.1 115.3 20.1 126 12.2 126 23.6 110.4 12.2 94.9z" id="path6505" style="fill:#fff;font-family:Trek;font-size:40;stroke-width:1"/>
</svg>
